packages/foundations/assets/icons/functional/images/maps/navigation_straight_32.svg

<svg width="32" height="32" viewBox="0 0 32 32" fill="none" xmlns="http://www.w3.org/2000/svg">
<g clip-path="url(#clip0_2213_5358)">
<path fill-rule="evenodd" clip-rule="evenodd" d="M16 4C16.232 4 16.4972 4.0995 16.6962 4.2986L23.7017 11.3081C23.8674 11.4739 24 11.7393 24 12.0047C24 12.5687 23.536 13 23.0056 13C22.7404 13 22.4752 12.9005 22.2763 12.7014L17 7.422L17.0052 26.9997C17.0054 27.5519 16.5579 28 16.0056 28C15.4533 28 15.0054 27.5526 15.0052 27.0003L15 7.422L9.72375 12.7014C9.52484 12.9005 9.28173 13 8.99442 13C8.46404 13 8 12.5687 8 12.0047C8 11.7393 8.09942 11.4739 8.29827 11.3081L15.3807 4.21937C15.5454 4.0731 15.7727 4 16 4Z" fill="#1A1C1F"/>
</g>
<defs>
<clipPath id="clip0_2213_5358">
<rect width="32" height="32" fill="white"/>
</clipPath>
</defs>
</svg>

<svg xmlns="http://www.w3.org/2000/svg" width="32" height="32" fill="none"><g clip-path="url(#a)"><path fill="#1A1C1F" fill-rule="evenodd" d="M16 4c.232 0 .497.1.696.299l7.006 7.01c.165.165.298.43.298.696a1 1 0 0 1-.994.995c-.266 0-.53-.1-.73-.299L17 7.422 17.005 27a1 1 0 1 1-2 0L15 7.422l-5.276 5.28a1 1 0 0 1-.73.298A1 1 0 0 1 8 12.005c0-.266.1-.531.298-.697l7.083-7.089A.94.94 0 0 1 16 4" clip-rule="evenodd"/></g><defs><clipPath id="a"><path fill="#fff" d="M0 0h32v32H0z"/></clipPath></defs></svg>
